X:9
T:Polska efter Kings Selma
R:polska K1
A:Dalarna
Z:hn-k1-9
M:3/4
K:Am
A|A2 dc BA/B/|c2 e2 ge|^f2 dc BA/B/|c2 ec A2|
A2 dc BA/B/|c2 e2 ge|^f2 dc BA/B/|SB<c A3:|
|:e|Sf>g a2 fa|a2 g/a/g/e/ ce|Sf>g a2 fa|a2 g/a/g/e/ ce|
Sd>^f e2 c2|SBc/B/ A3:|

